X: 26
T:Barnacle Bill
T:Blue Peter theme tune
M:4/4
L:1/8
R:Hornpipe
C:Ashworth-Hope
N:Posted to uk.music.folk 05/10/2003
Z:Steve Mansfield June 2001 rev. 05/10/2003
K:G
DE | G2G2 GABc | d2d2 d2ef | gage dedB | AGEG A2DE |1 G2G2 GABc |
d2d2 d2ge | fafd egec | d2d2d2 :|2 GAGe edBd | dBAB G2e2 |
dedB GABc | d2f2 g2 |: ga | g2d2 cBAG | d2d2 d2ga | g2d2 cBAG |
c2e2 d2ga | g2d2 cBAG | d2d2 d2ge | f2a2 g2b2 | a2e2 fed2 :|
g2d2 cBAG | d2d2 d2ga | g2d2 cBAG | c2e2 d2d2 | g2d2 a2d2 |
bc'ba g2e2 | dedB GABc | d2B2 G2 ||
<end>
<start>
